!!!OTL: Wir sitzen so fröhlich beisammen (2-11), S. 24f
!!!id: K1104
**kern
*clefG2
*k[f#]
*G:
{4g
=1
4g
4d
4b
=2
4b
4g
4dd
=3
8ee
8dd
8cc
8b
8a
8g
=4
4dd
4dd}
=5
{8ee
8dd
=6
4cc
4a
4g
=7
4g
4f#
8ee
8dd
=8
4cc
4a
4g
=9
4g
4f#}
=10
{8g
8g
=11
4.ee
8ee
4ee
=12
8ee
8dd
4dd
8b
8dd
=13
8dd
8cc
4cc
8a
8cc
=14
4cc
4b}
=15
{8g
8g
=16
4.ee
8ee
4ee
=17
8ee
8dd
4dd
8b
8dd
=18
8dd
8cc
4cc
8a
8cc
=19
4cc
4b}
==
*-
!!!minrhy: 8
!!!meters: 3/4 ]  ZZ[4
!!!cut: Wir sitzen so fröhlich beisammen (2-11), S. 24f
!!!reg: Luxemburg
!!!trd: KINTZELE, Guillaume: An der Ucht, Bd. 2, Luxemburg 1927
!!!rhy1: X_  X_X_X_  X_X_X_  XXXXXX  X_X_
!!!rhy2: XX  X_X_X_  X_X_XX  X_X_X_  X_X_
!!!key: K1104  08  G 3/4 ]  ZZ[4
!!!mod: HEPTATONIK IONISCH]  AMBITUS[9
!!!kad: 5-733
!!!akz: 1365_4141_6654_6654_
!!!fot: 'a__b__c__c__
!!!for: 'a__b__c__c__
!!!fok: '~a_\__^a_^a_
!! PHRAS[AUFTAKTIG]
!!!fkt: Spottlied
!!!bem: in der Quelle mit einer 2. Stimme versehen
!! KINTZELE
!! PR[42] 2K[0] 2G[7] 3K[4] 3G[0] 4A[2] 4Ü[0] 5A[0] 6K[0] 6G[5]
!! 7K[0] 7G[0] 8A[0] MEHR[0] SI[18] ABS[55] SR[7] SP[11]
!! ST[12] 2k[9] 2g[25] 3k[0] 3g[2] 4d[2] 4ü[0] 5d[2] 6k[0] 6g[0]
!! 7k[0] 7g[0] 8d[0] mehr[0] si[40] dm[-22] sr[35] sp[5]
!! 1F[45] 2F[48] 3F[3] 4F[0] LF[0] 2P[3] 3P[0] 4P[0] TRI[0] DF[4] AB[58]
!! TF[0] U3K[0] U3[0] U4[0] U4Ü[0] U5[0] U6K[0] U6[0] U7K[0] U7[0]
!! N1[20] N2K[0] N2[13] N3K[0] N3[9] N4[13] N4Ü[0] N5[27] N6K[0] N6[20]
!!!n7k: 0] N7[0] O1[0] O2K[0] O2[0] O3K[0] O3[0] HÖ[0
